X:1
T: Mrs. MacDouall Grant
C:Nathaniel Gow
R:Strathspey
Q: 128
K:F
M:4/4
L:1/16
|:B2|ABc2 c2c2 Bd3 d4|ABc2 A2F2 EG3 G3B|ABc2 c2c2 Bcde f2d2|c2A2 B2G2 F4 F2B2|
ABc2 c2c2 Bd3 d4|ABc2 A2F2 EG3 G3B|ABc2 c2c2 Bcde f2d2|c2A2 B2G2 F4 F2f2|
g4 a2e2 f2c2 f3a|g2fg a2f2 e2g2 g2a2|g4 a2e2 f2c2 f2ed|c2A2 B2G2 F4 F2f2|
g4 a2e2 f2c2 f2a2|g4 a2f2 e2g2 g2fg|a2f2 d2f2 e2c2 f2d2|c2BA B2AG F4 F2:|
